!!!COM: Charles Gounod
!!!CNT: Francais
!!!TXO: Francais
!!!OTL: Au Printemps
!!!LYR: Jules Barbier
!!!ENC: Jacob Pegg
!!!YOR: Romantic French Song 1830-1870 -David Tunley, ed.,
!!!YOR: New York: Garland Publishing, Inc., 1995, Vol. 5
!!!ODT: 1868/
!!NB: Vocal melody and text only encoded.
!!NB: First instance of melodic material only encoded.
**kern	**silbe
*clef G2	*
*k[f#c#]	*
*M6/8	*
*MM[allegretto]	*
!!created: 6/5/03 21:28
!!proofed and posted: 6/5/03 21:50
!!edit time: 22 min.
=3	=3
8r	.
{8d	{Le
8e	prin-
8f#	-temps
8g	chas-
8a	-se
=4	=4
(16aq	les
16cc#q	|
4b)	|
8a	hi-
4.a}	-vers}
=5	=5
8r	.
{8d	{Et
8e	sou-
8f#	-rit
8dd	dans
8b	les
=6	=6
(16bq	ar-
16cc#q	|
4b)	|
8a	-bres
4.a}	verts}
=7	=7
8r	.
{8f#	{Sous
8g#	la
8a#	feuil-
8b	-le
8cc#	nou-
=8	=8
(8dd	-vel-
8cc#)	|
8dd	-le
(8ff#	pas-
8ee)	|
8dd	-sent
=9	=9
4.cc#	des
4.b	bruits
=10	=10
4.b	d'ai-
4.a}	-le!}
!!11-14 identical to 1st 4 meas.
=15	=15
8r	.
{8f#	{Le
8g#	prin-
8a#	-temps
8b	nous
8cc#	ap-
=16	=16
(8dd	-pel-
8cc#)	|
8dd}	-le}
{(8ee	{Viens,
8ff#)	|
8gg	so-
=17	=17
4.ff#	-yons
4.ee	heu-
=18	=18
[4.dd	-reux!
8dd]}	|}
8r	.
8r	.
=19	=19
{8e	{Vois!
8f#	le
8g#	so-
8a	-leil
8b	e/-
8cc#	-tin-
=20	=20
(8ee	-cel-
8dd	|
8cc#)	|
8b}	-le}
8r	.
8r	.
=21	=21
{8e	{Et
8f#	sa
8g#	clar-
8a	-te/
8b	qui
8cc#	ruis-
=22	=22
(8gg#	-sel-
8ff#	|
8ee)	|
4b}	-le}
8r	.
=23	=23
{8cc#	{Me
8b#	sem-
8cc#	-ble en-
4aa	-cor
8gg#	plus
=24	=24
(8gg#	bel-
8ff#	|
8ee)	|
(8ee	-le
8dd)}	|}
{8f#	{Dans
=25	=25
4.cc#	tes
4.b	beaux
=26	=26
(4.b	yeux!
4.a)}	|}
!!27-end repeated material
*-	*-
